X:1
T:In the Rock I’m Safely Resting
T:In the Rock I’m Safely Resting
T:Hamlin Elisha Cogswell
T:Laura Emeline Pixley Newell, 1893
T:Public Domain Courtesy of the Cyber Hymnal™
T:Public Domain Courtesy of the Cyber Hymnal™
C:Hamlin Elisha Cogswell
Z:Public Domain
Z:Courtesy of the Cyber Hymnal™
%%score ( 1 2 ) ( 3 4 )
L:1/8
Q:1/4=95
M:3/4
K:Ab
V:1 treble 
V:2 treble 
V:3 bass 
V:4 bass 
V:1
"^Moderato" [CE]>[CA] | [Ec]3 [DB] [CA][DF] | [CE]2 [CA]2 [_GA]>[GA] | [FA]3 [EG] [DF][DA] | %4
w: 1.~In the|Rock I’m safe- ly|rest- ing, Storms may|beat, and tem- pests|
w: 2.~In the|bless- èd Rock I’m|rest- ing, He’s the|an- chor of my|
w: 3.~In the|Rock I’m safe- ly|rest- ing, Now the|even- ing sha- dows|
 [CE]4 [CE]>[CE] | [DF]3 [FA] [EG][DF] | [CE]2 [EA]2 [EA]>[EB] | [Ec]3 [Ec] [=DB][DF] | %8
w: rave, But se-|cure I stand un-|daunt- ed, Christ will|shel- ter, He will|
w: soul; And tho’|lives are filled with|an- guish, Bro- ken|hearts doth He make|
w: near, As a|man- tle shroud my|path- way, But I|do not feel a|
 [EB]4 [EB]>[EB] | [EB]3 [EG] [EA]"^Con fuoco"[GB] | [Ac]2 [Bc]2 [Ac]>[_Gc] | %11
w: save. While the|bil- lows in their|fu- ry Mad- ly|
w: whole. Christ will|bless and not for-|sake me, He’s my|
w: fear; He is|mine, I’m His for-|ev- er; By His|
 !>![Fe]3"^rall." !>![Ae] !>![A=d]!>![E_d] | !>![Ec]4 [Ec]>"^a tempo"[=Ec] | %13
w: dash, and break- ers|roar, Clos- er|
w: com- fort and my|stay; With His|
w: pre- sence I am|blest, He will|
 [Fc]3 [_Gc]!>(! [FB][Fc]!>)! | [Fd]2 !fermata![=B,F]2 [B,G]>[B,F] | [CE][Ec] [DB]3 [CA] | [CA]4 || %17
w: still I’ll cling to|Je- sus, He’s my|re- fuge ev- er-|more.|
w: ten- der hand so|lov- ing, He doth|wipe my tears a-|way.|
w: guide me, gent- ly|guide me To the|bliss- ful isles of|rest.|
"^Refrain" [Ee]>[Ee] | [Ee]3 [EG] [EA][GB] | [Ac]2 [Ac]2 c>c | c3 [C=E] [CF][EG] | %21
w: ||||
w: In the|Rock, the Rock Christ|Je- sus, Firm I|stand thro’ storm and|
w: ||||
 [FA]4!p! [_GA]>[GA] | [FA]3 [FA] [EG][DF] | [CE]2 [EA]2 [EA]>[EB] | [Ec]3 [Ec] [=DB][DF] | %25
w: ||||
w: sun, Naught on|earth hath power to|harm me, ’Till the|vic- to- ry is|
w: ||||
 [EB]4!ff! [Ee]>[Ee] | [Ee]3 [EG] [EA][GB] | [Ac]2 [Ac]2 c>c | c3 [C=E] [CF][EG] | %29
w: ||||
w: won; He is|mine, I’m His for-|ev- er, By His|pre- sence I am|
w: ||||
 [FA]4 [_GA]>[GA] | [FA]3 [FA] [EG][DF] | [CE]2 [EA]2 [=DA][DA] | [EA][CE] [DB]3 [CA] | [CA]4 |] %34
w: |||||
w: blest; He will|guide me, gent- ly|guide me, To the|bliss- ful vales of|rest.|
w: |||||
V:2
 x2 | x6 | x6 | x6 | x6 | x6 | x6 | x6 | x6 | x6 | x6 | x6 | x6 | x6 | x6 | x6 | x4 || x2 | x6 | %19
 x4 c>c | c3 x3 | x6 | x6 | x6 | x6 | x6 | x6 | x4 c>c | c3 x3 | x6 | x6 | x6 | x6 | x4 |] %34
V:3
 [A,,A,]>[A,,A,] | [A,,A,]3 [A,,A,] [A,,A,][A,,A,] | [A,,A,]2 [A,,A,]2 [C,A,]>[C,A,] | %3
 [D,A,]3 [D,A,] [D,A,][D,A,] | [A,,A,]4 [A,,A,]>[A,,A,] | [D,A,]3 [D,A,] [D,A,][D,A,] | %6
 [A,,A,]2 [C,A,]2 [C,A,]>[E,G,] | A,3 A, [F,A,][F,A,] | [E,G,]4 [E,G,]>[E,G,] | %9
 [E,G,]3 [DE] [CE][B,E] | [A,E]2 [G,=E]2 [F,F]>[=E,A,] | !>![D,A,]3 !>![C,A,] !>![B,,F,]!>![E,G,] | %12
 !>![A,,A,]4 A,>[G,B,] | [F,A,]3 [E,A,] [D,B,][C,=A,] | [B,,B,]2 [=D,A,]2 [D,A,]>[D,A,] | %15
 [E,A,][E,A,] [E,G,]3 [A,,A,] | [A,,A,]4 || [E,E]>[E,E] | [E,E]3 [DE] [CE][B,E] | %19
 [A,E]2 [A,E]2 [C,C]>[C,C] | [C,C]3 [B,C] [A,C][G,C] | [F,C]4 [C,A,]>[C,A,] | %22
 [D,A,]3 [D,A,] [D,A,][D,A,] | [A,,A,]2 [A,,C]2 [C,A,]>[E,G,] | A,3 A, [F,A,][F,A,] | %25
 [E,G,]4 [E,E]>[E,E] | [E,E]3 [DE] [CE][B,F] | [A,E]2 [A,E]2 [C,C]>[C,C] | %28
 [C,C]3 [B,C] [A,C][G,C] | [F,C]4 [C,A,]>[C,A,] | [D,A,]3 [D,A,] [D,A,][D,A,] | %31
 [A,,A,]2 [C,A,]2 [F,B,][F,=B,] | [E,C][E,A,] [E,G,]3 [A,,A,] | [A,,A,]4 |] %34
V:4
 x2 | x6 | x6 | x6 | x6 | x6 | x6 | A,3 A, x2 | x6 | x6 | x6 | x6 | x4 A,3/2 x/ | x6 | x6 | x6 | %16
 x4 || x2 | x6 | x6 | x6 | x6 | x6 | x6 | A,3 A, x2 | x6 | x6 | x6 | x6 | x6 | x6 | x6 | x6 | x4 |] %34

